X: 637
T: Eledim Eledim Höllük Eledim
C: Muharrem Akkuş
O: Turkey
F: http://compmusic.upf.edu/node/140
N: ussak--turku--sofyan--eledim_eledim--erzurum
N: makam= ussak
N: form= turku
N: usul= sofyan = 4/4
M: 4/4
L: 1/16
K: C _2/4B   
Q: 1/4=54
%%MIDI tuningsystem comma53
z2GA AA2d d/Bd/c2 c{d}B/c/B2  | Bcd2 dB/d/c2 c/d/B3 z4  | 
w:  E le dim_ e *  le *  *  *  dim   |  höl *  lük_ e le *  *  dim    | 
z2Bc dd3 Bc/d/cc {d}BA3  | A/d/B{d}c{d}B BA3 A8  | \
w:  Ay na lı  be şik *  *  *  te  *  ca nân   |  be *  bek  *  *  *  *  be le dim    | 
z2GA A2d2 d/Bd/c2 c{d}B/c/B2  | 
w:  Bü yüt tüm  bes le *  *  *  dim   | 
Bcd2 dB/d/c2 c/d/B3 z4  | z2Bc dd3 Bc/d/cc {d}BA3  | 
w:  es *  ker_ ey le *  *  dim    |  Git ti  de  gel me *  *  *  di  *  ca nân   | 
A/d/B{d}c{d}B BA3 A8  | z2GA A2d2 d/Bd/c2 c{d}B/c/B2  | 
w:  bu *  na  *  *  *  *  ne  ça re    |  Bü yüt tüm  bes le *  *  *  dim   | 
Bcd2 dB/d/c2 c/d/B3 z4  | z2Bc dd3 Bc/d/cc {d}BA3  | 
w:  es *  ker_ ey le *  *  dim    |  Git ti  de  gel me *  *  *  di  *  ca nân   | 
A/d/B{d}c{d}B BA3 A8  | z2GA A2d2 d/Bd/c2 c{d}B/c/B2  | 
w:  bu *  na  *  *  *  *  ne  ça re    |  Bir  gü zel  sî mâ *  *  *  dır   | 
Bcd2 dB/d/c2 c/d/B3 z4  | z2Bc dd3 Bc/d/cc {d}BA3  | 
w:  ak *  lı mı  a *  *  lan    |  Aş kın  sev dâ sı *  *  *  nı  *  ca nân   | 
A/d/B{d}c{d}B BA3 A8  | z2GA AA2d d/Bd/c2 c{d}B/c/B2  | 
w:  se *  ri *  *  *  *  me  sa lan    |  Bi zi  kı na *  ma *  *  *  sın   | 
Bcd2 dB/d/c2 c/d/B3 z4  | z2Bc dd3 Bc/d/cc {d}BA3  | 
w:  ehl_ *  i  dil_ o *  *  lan    |  Git ti  de  gel me *  *  *  di  *  ca nân   | 
A/d/B{d}c{d}B BA3 A8  | z2GA AA2d d/Bd/c2 c{d}B/c/B2  | 
w:  bu *  na  *  *  *  *  ne  ça re    |  Bi zi  kı na *  ma *  *  *  sın   | 
Bcd2 dB/d/c2 c/d/B3 z4  | z2Bc dd3 Bc/d/cc {d}BA3  | 
w:  ehl_ *  i  dil_ o *  *  lan    |  Git ti  de  gel me *  *  *  di  *  ca nân   | 
A/d/B{d}c{d}B BA3 A8  | |


